icons/glyphs/glyph-pen-tool.svg

<?xml version="1.0" encoding="UTF-8" standalone="no"?><svg height="16" viewBox="0 0 4.2333332 4.2333335" width="16" xmlns="http://www.w3.org/2000/svg"><sodipodi:namedview/><metadata><rdf:RDF><cc:Work><dc:format>image/svg+xml</dc:format><dc:type/><dc:title/></cc:Work></rdf:RDF></metadata><path d="m3.3343845-.00000119-2.3264647.81235493-1.00791979 2.99615356.07673458.0767343 1.57806921-1.578069c-.0592138-.1637056-.0186383-.346881.1041693-.4702664.1619623-.1614249.4192689-.1756271.5980132-.0330081.014459.00931.030199.015646.042866.028298.011274.011286.016671.025414.025293.038151.1462698.1788017.1332986.4393368-.0300053.6027265-.1233859.1228092-.306561.1633841-.4702657.1041716l-1.57806884 1.5780686.0780195.0780207 2.99486764-1.0092072.8136407-2.32517859z" fill="#d0d0d0" stroke-linejoin="round" stroke-width=".378017"/></svg>

<?xml version="1.0" encoding="UTF-8" standalone="no"?>
<!-- Created with Inkscape (http://www.inkscape.org/) -->

<svg
   xmlns:dc="http://purl.org/dc/elements/1.1/"
   xmlns:cc="http://creativecommons.org/ns#"
   xmlns:rdf="http://www.w3.org/1999/02/22-rdf-syntax-ns#"
   xmlns:svg="http://www.w3.org/2000/svg"
   xmlns="http://www.w3.org/2000/svg"
   xmlns:sodipodi="http://sodipodi.sourceforge.net/DTD/sodipodi-0.dtd"
   xmlns:inkscape="http://www.inkscape.org/namespaces/inkscape"
   width="16"
   height="16"
   viewBox="0 0 4.2333332 4.2333335"
   version="1.1"
   id="svg8"
   inkscape:version="0.92+devel (555a04a4d0, 2017-08-15, custom)"
   sodipodi:docname="glyph-pen-tool.svg">
  <defs
     id="defs2" />
  <sodipodi:namedview
     id="base"
     pagecolor="#002466"
     bordercolor="#ffffff"
     borderopacity="0.37647059"
     inkscape:pageopacity="1"
     inkscape:pageshadow="2"
     inkscape:zoom="26.323658"
     inkscape:cx="8.7781971"
     inkscape:cy="4.7938515"
     inkscape:document-units="px"
     inkscape:current-layer="svg8"
     inkscape:document-rotation="0"
     showgrid="false"
     inkscape:showpageshadow="false"
     borderlayer="true"
     units="px"
     inkscape:window-width="1920"
     inkscape:window-height="1023"
     inkscape:window-x="0"
     inkscape:window-y="28"
     inkscape:window-maximized="1" />
  <metadata
     id="metadata5">
    <rdf:RDF>
      <cc:Work
         rdf:about="">
        <dc:format>image/svg+xml</dc:format>
        <dc:type
           rdf:resource="http://purl.org/dc/dcmitype/StillImage" />
        <dc:title />
      </cc:Work>
    </rdf:RDF>
  </metadata>
  <path
     style="fill:#d0d0d0;stroke-width:0.37801725;stroke-linejoin:round"
     d="M 3.3343845,-1.19e-6 1.0079198,0.81235374 1.4999997e-8,3.8085073 0.07673459,3.8852416 1.6548038,2.3071726 C 1.59559,2.143467 1.6361655,1.9602916 1.7589731,1.8369062 1.9209354,1.6754813 2.178242,1.6612791 2.3569863,1.8038981 c 0.014459,0.00931 0.030199,0.015646 0.042866,0.028298 0.011274,0.011286 0.016671,0.025414 0.025293,0.038151 C 2.5714151,2.0491488 2.5584439,2.3096839 2.39514,2.4730736 2.2717541,2.5958828 2.088579,2.6364577 1.9248743,2.5772452 L 0.34680546,4.1553138 0.42482496,4.2333345 3.4196926,3.2241273 4.2333333,0.89894871 Z"
     id="rect4264"
     inkscape:connector-curvature="0"
     sodipodi:nodetypes="cccccccccccccccc"
     inkscape:label="#" />
</svg>
